src/img/atribuicao-02.svg

<svg width="45" height="53" viewBox="0 0 45 53" fill="none" xmlns="http://www.w3.org/2000/svg">
<path d="M30.0052 12.501H32.4988V14.9946H34.9924V17.4883H37.5025V14.9946H39.9961V12.501H42.5061V9.99096H44.9998V4.98729H42.5061V2.49365H39.9961V4.98729H37.5025V7.49733H34.9924V4.98729H32.4988V2.49365H30.0052V4.98729H27.4951V9.99096H30.0052V12.501Z" fill="#3B2027"/>
<path d="M19.998 24.9854H22.5081V39.9964H19.998V24.9854Z" fill="#3B2027"/>
<path d="M17.5042 22.4917H19.9978V24.9853H17.5042V22.4917Z" fill="#3B2027"/>
<path d="M17.5047 29.989H14.9946V34.9927H7.49732V29.989H5.00369V39.9964H2.49365V42.49H5.00369V52.4973H10.0074V44.9836H12.501V52.4973H17.5047V42.49H19.9983V39.9964H17.5047V29.989Z" fill="#3B2027"/>
<path d="M14.9944 19.998H17.5044V22.4917H14.9944V19.998Z" fill="#3B2027"/>
<path d="M14.9944 14.9944H17.5044V17.488H14.9944V14.9944Z" fill="#3B2027"/>
<path d="M10.0071 22.4917H12.5007V29.989H10.0071V22.4917Z" fill="#3B2027"/>
<path d="M7.49731 17.4883H14.9946V19.9983H7.49731V17.4883Z" fill="#3B2027"/>
<path d="M5.00342 19.998H7.49705V22.4917H5.00342V19.998Z" fill="#3B2027"/>
<path d="M5.00342 14.9944H7.49705V17.488H5.00342V14.9944Z" fill="#3B2027"/>
<path d="M2.49365 22.4917H5.00369V24.9853H2.49365V22.4917Z" fill="#3B2027"/>
<path d="M7.49732 9.99094V7.49731H14.9946V9.99094H17.5047V14.9946H19.9983V4.98727H17.5047V2.49363H14.9946V0H7.49732V2.49363H5.00369V4.98727H2.49365V14.9946H5.00369V9.99094H7.49732Z" fill="#3B2027"/>
<path d="M0 24.9854H2.49363V39.9964H0V24.9854Z" fill="#3B2027"/>
</svg>

<svg width="45" height="53" fill="none" xmlns="http://www.w3.org/2000/svg"><path d="M30.005 12.501H32.5v2.494h2.493v2.493h2.51v-2.493h2.494V12.5h2.51V9.99H45V4.987h-2.494V2.494h-2.51v2.493h-2.494v2.51h-2.51v-2.51H32.5V2.494h-2.494v2.493h-2.51v5.004h2.51v2.51zM19.998 24.985h2.51v15.011h-2.51v-15.01zm-2.494-2.493h2.494v2.493h-2.494v-2.493zm.001 7.497h-2.51v5.004H7.497v-5.004H5.004v10.007h-2.51v2.494h2.51v10.007h5.003v-7.513h2.494v7.513h5.004V42.49h2.493v-2.494h-2.493V29.99zm-2.511-9.991h2.51v2.494h-2.51v-2.494zm0-5.004h2.51v2.494h-2.51v-2.494zm-4.987 7.498h2.494v7.497h-2.494v-7.497zm-2.51-5.004h7.498v2.51H7.497v-2.51zm-2.494 2.51h2.494v2.494H5.003v-2.494zm0-5.004h2.494v2.494H5.003v-2.494zm-2.509 7.498h2.51v2.493h-2.51v-2.493z" fill="#3B2027"/><path d="M7.497 9.99V7.498h7.498v2.494h2.51v5.004h2.493V4.987h-2.493V2.494h-2.51V0H7.497v2.494H5.004v2.493h-2.51v10.008h2.51V9.99h2.493zM0 24.985h2.494v15.011H0v-15.01z" fill="#3B2027"/></svg>
